assets/payVisa2.svg

<svg width="58" height="50" viewBox="0 0 58 50" fill="none" xmlns="http://www.w3.org/2000/svg">
<path fill-rule="evenodd" clip-rule="evenodd" d="M29.0122 35.8181C31.6201 38.304 35.1222 39.8118 38.9316 39.8118C47.1127 39.8118 53.7343 32.909 53.7343 24.419C53.7343 15.9031 47.1127 9 38.9316 9C35.1222 9 31.6201 10.5075 29.0122 12.9936C26.021 15.8234 24.1289 19.8965 24.1289 24.419C24.1292 28.9415 26.021 33.0148 29.0122 35.8181Z" fill="#E9B040"/>
<path fill-rule="evenodd" clip-rule="evenodd" d="M51.7695 32.9881C51.7695 32.7236 51.9741 32.5122 52.2296 32.5122C52.5106 32.5122 52.715 32.7239 52.715 32.9881C52.715 33.2795 52.5103 33.4909 52.2296 33.4909C51.9741 33.4909 51.7695 33.2795 51.7695 32.9881ZM52.2296 33.3853C52.4342 33.3853 52.6126 33.1998 52.6126 32.9885C52.6126 32.7771 52.4339 32.6184 52.2296 32.6184C52.0503 32.6184 51.8718 32.7771 51.8718 32.9885C51.8718 33.1998 52.0506 33.3853 52.2296 33.3853ZM52.1785 33.2266H52.0761V32.7768H52.2549C52.2808 32.7768 52.3319 32.7768 52.3572 32.8036C52.4083 32.8297 52.4083 32.8565 52.4083 32.9094C52.4083 32.9623 52.3831 33.0152 52.3319 33.0152L52.4342 33.2269H52.306L52.2549 33.0414H52.1785V33.2266V32.962H52.2808C52.306 32.962 52.306 32.9352 52.306 32.9091C52.306 32.8823 52.306 32.8823 52.2808 32.8562H52.1785V33.2266Z" fill="#E9B040"/>
<path fill-rule="evenodd" clip-rule="evenodd" d="M33.7943 22.7795C33.7432 22.2242 33.6409 21.6953 33.5386 21.1397H24.4881C24.5904 20.5844 24.7439 20.0555 24.897 19.5264H33.1041C32.9259 18.9696 32.7211 18.4223 32.4905 17.8866H25.5365C25.7922 17.3264 26.0738 16.7791 26.3802 16.2468H31.6215C31.2843 15.6819 30.9084 15.1428 30.4968 14.6334H27.5052C27.968 14.0488 28.4722 13.5007 29.0136 12.9936C26.3805 10.534 22.9033 9 19.0683 9C10.9128 9 4.26562 15.9031 4.26562 24.419C4.26562 32.909 10.9128 39.8118 19.0683 39.8118C22.9033 39.8118 26.3802 38.304 29.0136 35.8181C29.5468 35.3199 30.0426 34.7805 30.4968 34.2045H27.5052C27.096 33.6756 26.7382 33.1468 26.3802 32.5647H31.6215C31.9511 32.0417 32.2417 31.4935 32.4908 30.9249H25.5365C25.3063 30.396 25.0764 29.8672 24.897 29.3113H33.1041C33.2828 28.7824 33.411 28.2274 33.5383 27.6715C33.6406 27.1426 33.7429 26.5876 33.794 26.0317C33.8458 25.4955 33.8716 24.9569 33.8711 24.418C33.8711 23.8637 33.8455 23.3083 33.7943 22.7795Z" fill="#CC2131"/>
<path fill-rule="evenodd" clip-rule="evenodd" d="M51.7695 27.9896C51.7695 27.6989 51.9741 27.4875 52.2296 27.4875C52.5106 27.4875 52.715 27.6992 52.715 27.9896C52.715 28.2542 52.5103 28.4924 52.2296 28.4924C51.9741 28.4924 51.7695 28.2539 51.7695 27.9896ZM52.2296 28.3598C52.4342 28.3598 52.6126 28.201 52.6126 27.9896C52.6126 27.7783 52.4339 27.6195 52.2296 27.6195C52.0503 27.6195 51.8718 27.7783 51.8718 27.9896C51.8718 28.201 52.0506 28.3598 52.2296 28.3598ZM52.1785 28.201H52.0761V27.778H52.3572C52.4083 27.8047 52.4083 27.8577 52.4083 27.9106C52.4083 27.9367 52.3831 27.9896 52.3319 28.0164L52.4342 28.2013H52.306L52.2549 28.0426H52.1785V28.201V27.9632H52.2296C52.2549 27.9632 52.2808 27.9632 52.2808 27.9364C52.306 27.9364 52.306 27.9103 52.306 27.8835C52.306 27.8835 52.306 27.8574 52.2808 27.8574C52.2808 27.8306 52.2549 27.8574 52.2296 27.8574H52.1785V28.201Z" fill="white"/>
<path fill-rule="evenodd" clip-rule="evenodd" d="M23.9765 28.8623C23.4908 28.9943 23.1328 29.074 22.775 29.074C22.008 29.074 21.5476 28.5713 21.5476 27.672C21.5476 27.4871 21.5732 27.3019 21.5988 27.0903L21.7011 26.4823L21.7778 25.9796L22.4681 21.6423H24.002L23.823 22.5945H24.7946L24.5644 24.1814H23.5928L23.1839 26.7731C23.1583 26.9057 23.1583 26.9847 23.1583 27.0377C23.1583 27.3816 23.3118 27.5136 23.6951 27.5136C23.8742 27.5136 24.0273 27.4874 24.1808 27.4607L23.9765 28.8623ZM28.9365 28.8094C28.3741 28.9682 27.8629 29.0472 27.3002 29.0472C25.5616 29.0472 24.5644 28.095 24.5644 26.2178C24.5644 24.0223 25.7406 22.4355 27.3766 22.4355C28.6804 22.4355 29.5241 23.3347 29.5241 24.7361C29.5241 25.2126 29.473 25.6621 29.3454 26.2968H26.1496C26.124 26.4027 26.124 26.4556 26.124 26.5085C26.124 27.249 26.6096 27.6191 27.5301 27.6191C28.118 27.6191 28.6293 27.4871 29.1919 27.2229L28.9365 28.8094ZM27.9905 25.0274V24.7099C27.9905 24.1811 27.7091 23.89 27.2235 23.89C26.7119 23.89 26.3542 24.2866 26.2007 25.0271H27.9905V25.0274ZM11.7046 28.9414H10.1195L11.0399 22.9382L8.96916 28.9414H7.86998L7.7421 22.9646L6.77049 28.9414H5.21094L6.46358 21.1396H8.79013L8.84128 25.9535L10.4008 21.1396H12.9576L11.7046 28.9414ZM15.5655 26.1119C15.412 26.0852 15.3608 26.0852 15.2585 26.0852C14.3381 26.0852 13.878 26.4553 13.878 27.0373C13.878 27.4342 14.1082 27.6988 14.466 27.6988C15.233 27.6988 15.5396 27.0373 15.5655 26.1119ZM16.8437 28.9414H15.4632L15.4887 28.2806C15.1307 28.7827 14.645 29.0472 13.8013 29.0472C13.0343 29.0472 12.3696 28.3335 12.3696 27.3019C12.3696 27.0112 12.4208 26.7469 12.4975 26.4823C12.753 25.5034 13.699 24.8955 15.1562 24.8687C15.3353 24.8687 15.6163 24.8687 15.8721 24.8955C15.9229 24.6838 15.9229 24.6041 15.9229 24.4721C15.9229 24.0488 15.5907 23.9165 14.8493 23.9165C14.3892 23.9165 13.8777 23.9959 13.5199 24.1282L13.2898 24.1811L13.1875 24.2072L13.4176 22.7791C14.1591 22.541 14.6959 22.4355 15.2841 22.4355C16.6646 22.4355 17.4061 23.0966 17.4061 24.3131C17.4061 24.6306 17.4316 24.8687 17.3293 25.5563L16.9716 27.8308L16.9204 28.2277L16.8948 28.5452L16.8693 28.7568L16.8437 28.9414ZM36.6575 22.6471C37.1176 22.6471 37.5268 22.7794 38.0892 23.0701L38.3703 21.3774C38.2168 21.2981 38.1656 21.2981 37.9613 21.2187L37.3225 21.0335C37.1179 20.9806 36.8625 20.9541 36.5808 20.9541C35.7879 20.9541 35.3279 20.9806 34.8425 21.2716C34.5868 21.4568 34.2543 21.6949 33.8962 22.118L33.6916 22.065L32.0553 23.255L32.1323 22.5939H30.4446L29.448 28.9411H31.059L31.6467 25.5298C31.6467 25.5298 31.8772 25.0533 31.9792 24.8951C32.2861 24.4983 32.5415 24.4983 32.8737 24.4983H33.0019C32.9483 24.9013 32.9225 25.3079 32.9249 25.7147C32.9249 27.7776 34.0497 29.0737 35.7882 29.0737C36.223 29.0737 36.607 29.0208 37.1946 28.862L37.4763 27.0638C36.9651 27.3545 36.5047 27.4868 36.121 27.4868C35.1753 27.4868 34.6123 26.7463 34.6123 25.5828C34.6117 23.8636 35.4558 22.6471 36.6575 22.6471ZM50.2326 21.1396L49.8751 23.3612C49.4915 22.753 49.0311 22.4619 48.4176 22.4619C47.5735 22.4619 46.7813 22.9643 46.2953 23.9165V23.8904L45.2729 23.2554L45.3752 22.5942H43.6622L42.6906 28.9414H44.2757L44.8128 25.5301C44.8128 25.5301 45.2217 25.0536 45.324 24.8955C45.5798 24.578 45.8352 24.5247 46.0399 24.4986C45.8611 25.0274 45.7588 25.6621 45.7588 26.3765C45.7588 27.9634 46.5511 29.0211 47.727 29.0211C48.3153 29.0211 48.7753 28.8094 49.2098 28.3067L49.1334 28.9414H50.6421L51.8692 21.1396H50.2326ZM48.2644 27.4342C47.7273 27.4342 47.4463 27.0112 47.4463 26.191C47.4463 24.9478 47.9575 24.0488 48.6986 24.0488C49.261 24.0488 49.5426 24.4986 49.5426 25.292C49.5426 26.5614 49.0314 27.4342 48.2644 27.4342ZM40.8761 26.1119C40.7227 26.0852 40.6715 26.0852 40.5692 26.0852C39.6482 26.0852 39.1881 26.4553 39.1881 27.0373C39.1881 27.4342 39.4186 27.6988 39.7764 27.6988C40.5433 27.6988 40.8503 27.0373 40.8761 26.1119ZM42.1544 28.9414H40.748L40.7991 28.2806C40.4413 28.7827 39.9551 29.0472 39.112 29.0472C38.3191 29.0472 37.6291 28.3596 37.6291 27.3019C37.6291 25.7947 38.728 24.869 40.4666 24.869C40.646 24.869 40.9267 24.869 41.1572 24.8958C41.2083 24.6841 41.2342 24.6044 41.2342 24.4724C41.2342 24.0491 40.9017 23.9168 40.1347 23.9168C39.6999 23.9168 39.1631 23.9962 38.8054 24.1285L38.6007 24.1814L38.4984 24.2075L38.7283 22.7794C39.47 22.5413 40.0071 22.4358 40.5948 22.4358C41.9753 22.4358 42.6912 23.0969 42.6912 24.3134C42.6912 24.6309 42.7423 24.869 42.6147 25.5566L42.2822 27.8311L42.2311 28.228L42.1799 28.5455L42.1547 28.7571V28.9414H42.1544ZM20.1927 23.943C20.4996 23.943 20.9341 23.9694 21.3945 24.0488L21.6246 22.5677C21.1643 22.5148 20.5507 22.4355 20.1927 22.4355C18.4032 22.4355 17.8153 23.4406 17.8153 24.6041C17.8153 25.3714 18.1475 25.9264 19.0168 26.3494C19.6559 26.6669 19.7582 26.7195 19.7582 27.0109C19.7582 27.4071 19.426 27.6456 18.8122 27.6456C18.3265 27.6456 17.8661 27.5659 17.3549 27.381L17.1759 28.8353L17.2011 28.862L17.5081 28.9149C17.6104 28.9411 17.7382 28.9679 17.9173 28.994C18.3006 29.0208 18.6331 29.0469 18.8377 29.0469C20.6275 29.0469 21.3689 28.3332 21.3689 26.9312C21.3689 26.0587 20.9597 25.5298 20.1671 25.1597C19.4768 24.8419 19.4001 24.7896 19.4001 24.4983C19.4001 24.2075 19.707 23.943 20.1927 23.943Z" fill="#1B3771"/>
<path fill-rule="evenodd" clip-rule="evenodd" d="M38.8074 20.8753L38.5257 22.568C37.9634 22.277 37.5541 22.145 37.0941 22.145C35.8923 22.145 35.0489 23.3615 35.0489 25.0806C35.0489 26.2709 35.6112 26.9847 36.5576 26.9847C36.9406 26.9847 37.401 26.8527 37.9122 26.5884L37.6312 28.3599C37.0429 28.5187 36.6596 28.5983 36.2248 28.5983C34.4865 28.5983 33.4126 27.3022 33.4126 25.2132C33.4126 22.4361 34.8954 20.4788 37.0173 20.4788C37.2984 20.4788 37.5538 20.5052 37.7585 20.5581L38.3979 20.7169C38.6028 20.7963 38.6539 20.8227 38.8074 20.8753ZM33.6428 22.0392H33.4893C32.9528 22.0392 32.6459 22.3038 32.1599 23.0704L32.3134 22.0918H30.8558L29.8593 28.4393H31.4703C32.0579 24.5515 32.2114 23.8903 32.9784 23.8903H33.0807C33.2341 23.1233 33.4385 22.5677 33.6942 22.0653L33.6428 22.0392ZM24.388 28.3599C23.9535 28.5187 23.5955 28.5716 23.2377 28.5716C22.4195 28.5716 21.9592 28.0956 21.9592 27.1702C21.9592 27.0115 21.9848 26.8001 22.0103 26.6146L22.1126 25.9799L22.1894 25.4778L22.8796 21.1399H24.4648L24.2857 22.0921H25.1039L24.8993 23.6525H24.0811L23.6466 26.2974C23.621 26.4032 23.621 26.4829 23.621 26.562C23.621 26.8795 23.7745 27.0118 24.1578 27.0118C24.3369 27.0118 24.49 27.0118 24.5923 26.9589L24.388 28.3599ZM18.2265 24.102C18.2265 24.8957 18.5843 25.4507 19.428 25.8741C20.0927 26.1916 20.195 26.2971 20.195 26.5617C20.195 26.9586 19.9137 27.1434 19.2746 27.1434C18.7889 27.1434 18.3541 27.0644 17.8429 26.9056L17.6127 28.3599L17.6894 28.3867L17.9708 28.4396C18.0728 28.4657 18.201 28.4925 18.4053 28.4925C18.763 28.5454 19.0699 28.5454 19.2746 28.5454C20.9617 28.5454 21.7546 27.884 21.7546 26.4297C21.7546 25.5566 21.4224 25.0539 20.6298 24.6576C19.9395 24.3401 19.8628 24.261 19.8628 23.97C19.8628 23.6264 20.1442 23.4676 20.6554 23.4676C20.9623 23.4676 21.3968 23.4941 21.806 23.547L22.0359 22.0924C21.627 22.013 20.9879 21.9601 20.6298 21.9601C18.8401 21.9598 18.201 22.9384 18.2265 24.102ZM51.0537 28.4396H49.545L49.622 27.8311C49.1872 28.307 48.7268 28.5187 48.1385 28.5187C46.9626 28.5187 46.1956 27.4877 46.1956 25.9008C46.1956 23.7848 47.3974 21.9863 48.8032 21.9863C49.4426 21.9863 49.9027 22.2773 50.3378 22.8591L50.6956 20.6375H52.2807L51.0537 28.4396ZM48.7012 26.9586C49.4429 26.9586 49.9542 26.0593 49.9542 24.8161C49.9542 23.9962 49.6725 23.5728 49.1102 23.5728C48.3943 23.5728 47.8578 24.4456 47.8578 25.6889C47.8578 26.5355 48.1389 26.9586 48.7012 26.9586ZM29.2966 28.307C28.7339 28.4925 28.2227 28.5716 27.6347 28.5716C25.845 28.5716 24.9245 27.5932 24.9245 25.7153C24.9245 23.5467 26.1007 21.9333 27.7115 21.9333C29.0408 21.9333 29.8842 22.8326 29.8842 24.2343C29.8842 24.7105 29.8331 25.1603 29.6796 25.8212H26.51C26.4844 25.9008 26.4844 25.9538 26.4844 26.0067C26.4844 26.7472 26.9703 27.1173 27.8905 27.1173C28.4784 27.1173 28.9897 27.0115 29.5524 26.7204L29.2966 28.307ZM28.4017 24.525V24.2078C28.4017 23.679 28.1204 23.3879 27.6347 23.3879C27.1235 23.3879 26.7654 23.7848 26.612 24.525H28.4017ZM12.1162 28.4396H10.531L11.4515 22.4357L9.38071 28.4396H8.28123L8.15335 22.4887L7.18205 28.4396H5.69922L6.95186 20.6375H9.25283L9.32956 25.4775L10.8632 20.6375H13.3688L12.1162 28.4396ZM16.079 25.6095C15.9256 25.6095 15.8488 25.5833 15.7209 25.5833C14.8261 25.5833 14.366 25.927 14.366 26.5617C14.366 26.9586 14.5706 27.1964 14.9284 27.1964C15.5931 27.1964 16.0534 26.5617 16.079 25.6095ZM17.2549 28.4396H15.9253L15.9508 27.7781C15.5416 28.307 15.0048 28.5454 14.2634 28.5454C13.3941 28.5454 12.8061 27.8578 12.8061 26.8263C12.8061 25.2662 13.8286 24.3669 15.6183 24.3669C15.7974 24.3669 16.0276 24.3933 16.283 24.4195C16.3342 24.2081 16.3342 24.1288 16.3342 24.0229C16.3342 23.5999 16.0528 23.4412 15.3114 23.4412C14.8513 23.4412 14.3398 23.4941 13.9821 23.5999L13.7519 23.6793L13.5984 23.7057L13.8286 22.2776C14.6212 22.0395 15.158 21.9601 15.7462 21.9601C17.1267 21.9601 17.8682 22.5948 17.8682 23.8113C17.8682 24.1288 17.8426 24.3669 17.7403 25.0809L17.3822 27.3293L17.3311 27.7255L17.3055 28.043L17.2799 28.2815L17.2549 28.4396ZM41.3897 25.6095C41.2104 25.6095 41.1339 25.5833 41.0319 25.5833C40.1115 25.5833 39.6508 25.927 39.6508 26.5617C39.6508 26.9586 39.8813 27.1964 40.2391 27.1964C40.8785 27.1964 41.3638 26.5617 41.3897 25.6095ZM42.5656 28.4396H41.2362L41.2615 27.7781C40.8526 28.307 40.3158 28.5454 39.5744 28.5454C38.7051 28.5454 38.1168 27.8578 38.1168 26.8263C38.1168 25.2662 39.1393 24.3669 40.929 24.3669C41.1084 24.3669 41.3385 24.3933 41.5684 24.4195C41.6196 24.2081 41.6455 24.1288 41.6455 24.0229C41.6455 23.5999 41.3638 23.4412 40.623 23.4412C40.1623 23.4412 39.6258 23.4941 39.2678 23.5999L39.0632 23.6793L38.9097 23.7057L39.1396 22.2776C39.9324 22.0395 40.4689 21.9601 41.0572 21.9601C42.4377 21.9601 43.1536 22.5948 43.1536 23.8113C43.1536 24.1288 43.1536 24.3669 43.026 25.0809L42.6935 27.3293L42.6423 27.7255L42.5912 28.043L42.5659 28.2815V28.4396H42.5656ZM46.8606 22.0392H46.7072C46.1707 22.0392 45.8638 22.3038 45.3778 23.0704L45.5313 22.0918H44.0737L43.1021 28.4393H44.6872C45.2755 24.5515 45.429 23.8903 46.1959 23.8903H46.2983C46.4517 23.1233 46.656 22.5677 46.9118 22.0653L46.8606 22.0392Z" fill="white"/>
</svg>

<svg xmlns="http://www.w3.org/2000/svg" width="58" height="50" fill="none" fill-rule="evenodd" xmlns:v="https://vecta.io/nano"><path d="M29.012 35.818c2.608 2.486 6.1 3.994 9.92 3.994 8.18 0 14.803-6.903 14.803-15.393C53.734 15.903 47.113 9 38.932 9c-3.8 0-7.312 1.508-9.92 3.994-3 2.83-4.883 6.903-4.883 11.425s1.892 8.596 4.883 11.4zm22.758-2.83c0-.265.205-.476.46-.476a.47.47 0 0 1 .485.476c0 .3-.205.503-.485.503-.255 0-.46-.2-.46-.503zm.46.397a.4.4 0 0 0 .383-.397c0-.2-.18-.37-.383-.37-.18 0-.358.16-.358.37s.18.397.358.397zm-.05-.16h-.102v-.45h.18c.026 0 .077 0 .102.027.05.026.05.053.05.106s-.025.106-.076.106l.102.212h-.128l-.05-.185h-.076v.185-.265h.102c.025 0 .025-.027.025-.053s0-.027-.025-.053h-.102v.37z" fill="#e9b040"/><path d="M33.794 22.78c-.05-.555-.153-1.084-.256-1.64h-9.05c.102-.555.256-1.084.41-1.613h8.207l-.614-1.64h-6.954l.844-1.64h5.24c-.337-.565-.713-1.104-1.125-1.613h-2.992a15.02 15.02 0 0 1 1.508-1.64C26.38 10.534 22.903 9 19.068 9 10.913 9 4.266 15.903 4.266 24.42c0 8.5 6.647 15.393 14.803 15.393 3.835 0 7.312-1.508 9.945-3.994a14.47 14.47 0 0 0 1.483-1.614h-2.992a18.24 18.24 0 0 1-1.125-1.64h5.24c.33-.523.62-1.07.87-1.64h-6.954c-.23-.53-.46-1.058-.64-1.614h8.207c.18-.53.307-1.084.434-1.64.102-.53.205-1.084.256-1.64a16.62 16.62 0 0 0 .077-1.614c0-.554-.026-1.1-.077-1.64z" fill="#cc2131"/><path d="M51.77 28c0-.29.205-.502.46-.502.28 0 .485.212.485.502 0 .265-.205.503-.485.503-.255 0-.46-.238-.46-.503zm.46.37c.205 0 .383-.16.383-.37s-.18-.37-.383-.37c-.18 0-.358.16-.358.37s.18.37.358.37zm-.05-.16h-.102v-.423h.28c.05.027.05.08.05.133 0 .026-.025.08-.076.106l.102.185h-.128l-.05-.16h-.076v.158-.238h.05c.025 0 .05 0 .05-.027.025 0 .025-.026.025-.053 0 0 0-.026-.025-.026 0-.027-.026 0-.05 0h-.05v.344z" fill="#fff"/><path d="M23.977 28.862c-.486.132-.844.212-1.202.212-.767 0-1.227-.503-1.227-1.402 0-.185.026-.37.05-.582l.102-.608.077-.503.7-4.337h1.534l-.18.952h.972l-.23 1.587h-.972l-.41 2.592c-.026.133-.026.212-.026.265 0 .344.154.476.537.476.18 0 .332-.026.486-.053l-.204 1.402zm4.96-.053c-.562.16-1.074.238-1.636.238-1.74 0-2.736-.952-2.736-2.83 0-2.195 1.176-3.782 2.812-3.782 1.304 0 2.148.9 2.148 2.3 0 .476-.05.926-.18 1.56H26.15c-.026.106-.026.16-.026.212 0 .74.486 1.11 1.406 1.11.588 0 1.1-.132 1.662-.396l-.255 1.587zm-.946-3.782V24.7c0-.53-.28-.82-.767-.82-.512 0-.87.397-1.023 1.137h1.8zM11.705 28.94H10.12l.92-6.003-2.07 6.003h-1.1l-.128-5.977-.972 5.977H5.21l1.253-7.802H8.8l.05 4.814 1.56-4.814h2.557l-1.253 7.802zm3.86-2.83c-.153-.027-.205-.027-.307-.027-.92 0-1.38.37-1.38.952 0 .397.23.662.588.662.767 0 1.074-.662 1.1-1.587zm1.278 2.83h-1.38l.025-.66c-.358.502-.844.767-1.687.767-.767 0-1.432-.714-1.432-1.745 0-.29.05-.555.128-.82.255-.98 1.2-1.587 2.66-1.614l.716.027c.05-.212.05-.29.05-.423 0-.423-.332-.556-1.074-.556-.46 0-.972.08-1.33.212l-.23.053-.102.026.23-1.428c.742-.238 1.278-.344 1.867-.344 1.38 0 2.122.66 2.122 1.878 0 .318.026.556-.077 1.243l-.358 2.274-.05.397-.026.318-.026.212-.026.185zm19.814-6.294c.46 0 .87.132 1.432.423l.28-1.693c-.154-.08-.205-.08-.41-.16l-.64-.185c-.205-.053-.46-.08-.742-.08-.793 0-1.253.026-1.738.317-.256.185-.588.423-.946.846l-.205-.053-1.636 1.2.077-.66h-1.688l-.997 6.347h1.61l.588-3.41.332-.635c.307-.397.562-.397.895-.397h.128c-.054.403-.08.8-.077 1.216 0 2.063 1.125 3.36 2.863 3.36.435 0 .82-.053 1.406-.212l.282-1.798c-.51.29-.972.423-1.355.423-.946 0-1.51-.74-1.51-1.904-.001-1.72.844-2.936 2.045-2.936zm13.575-1.507l-.357 2.222c-.384-.608-.844-.9-1.458-.9-.844 0-1.636.502-2.122 1.455V23.9l-1.022-.635.102-.66h-1.713l-.972 6.347h1.585l.537-3.41.51-.635c.256-.317.51-.37.716-.397-.18.53-.28 1.163-.28 1.878 0 1.587.792 2.645 1.968 2.645.588 0 1.048-.212 1.483-.714l-.076.635h1.51l1.227-7.802h-1.637zm-1.968 6.295c-.537 0-.818-.423-.818-1.243 0-1.243.51-2.142 1.252-2.142.562 0 .844.45.844 1.243 0 1.27-.51 2.142-1.278 2.142zm-7.388-1.322c-.153-.027-.205-.027-.307-.027-.92 0-1.38.37-1.38.952 0 .397.23.662.588.662.767 0 1.074-.662 1.1-1.587zm1.278 2.83h-1.406l.05-.66c-.358.502-.844.767-1.687.767-.793 0-1.483-.688-1.483-1.745 0-1.507 1.1-2.433 2.837-2.433l.69.027c.05-.212.077-.29.077-.423 0-.423-.333-.556-1.1-.556-.435 0-.972.08-1.33.212l-.205.053-.102.026.23-1.428c.742-.238 1.28-.344 1.867-.344 1.38 0 2.096.66 2.096 1.878 0 .317.05.556-.077 1.243l-.332 2.274-.05.397-.05.317-.025.212v.184h0zm-21.962-4.998a7.33 7.33 0 0 1 1.202.106l.23-1.48-1.432-.132c-1.8 0-2.377 1.005-2.377 2.17 0 .767.332 1.322 1.2 1.745.64.317.74.37.74.662 0 .396-.332.635-.946.635-.486 0-.946-.08-1.457-.265l-.18 1.454.025.027.307.053c.102.026.23.053.41.08l.92.053c1.8 0 2.53-.714 2.53-2.116 0-.872-.41-1.4-1.202-1.77-.7-.318-.767-.37-.767-.66s.307-.555.793-.555z" fill="#1b3771"/><path d="M38.807 20.875l-.282 1.693c-.562-.29-.972-.423-1.432-.423-1.202 0-2.045 1.217-2.045 2.936 0 1.2.562 1.904 1.51 1.904.383 0 .843-.132 1.355-.396l-.28 1.77c-.588.16-.972.238-1.406.238-1.738 0-2.812-1.296-2.812-3.385 0-2.777 1.483-4.734 3.605-4.734.28 0 .537.026.74.08l.64.16.4.158zm-5.165 1.164h-.154c-.536 0-.843.265-1.33 1.03l.154-.98h-1.458l-.996 6.348h1.61c.588-3.888.74-4.55 1.508-4.55h.102c.153-.767.358-1.323.614-1.825l-.05-.026zm-9.255 6.32c-.435.16-.793.212-1.15.212-.818 0-1.28-.476-1.28-1.4a4.52 4.52 0 0 1 .051-.556l.102-.635.077-.502.7-4.338h1.585l-.18.952h.818l-.205 1.56h-.818l-.434 2.645c-.026.106-.026.186-.026.265 0 .317.154.45.537.45.18 0 .332 0 .434-.053l-.204 1.4zm-6.16-4.258c0 .794.358 1.35 1.2 1.772.665.318.767.423.767.688 0 .397-.28.582-.92.582a4.63 4.63 0 0 1-1.432-.238l-.23 1.454.077.027.28.053a1.63 1.63 0 0 0 .434.053c.358.053.665.053.87.053 1.687 0 2.48-.66 2.48-2.116 0-.873-.332-1.376-1.125-1.772-.7-.317-.767-.397-.767-.688 0-.344.28-.502.793-.502a9.66 9.66 0 0 1 1.151.079l.23-1.455c-.41-.08-1.048-.132-1.406-.132-1.8 0-2.43.978-2.403 2.142zm32.827 4.338h-1.51l.077-.608c-.435.476-.895.688-1.483.688-1.176 0-1.943-1.03-1.943-2.618 0-2.116 1.202-3.915 2.608-3.915.64 0 1.1.29 1.535.873l.358-2.222h1.585l-1.227 7.802zM48.7 26.96c.742 0 1.253-.9 1.253-2.143 0-.82-.282-1.243-.844-1.243-.716 0-1.252.873-1.252 2.116 0 .847.28 1.27.843 1.27zm-19.405 1.348a5.08 5.08 0 0 1-1.662.265c-1.8 0-2.7-.978-2.7-2.856 0-2.17 1.176-3.782 2.787-3.782 1.33 0 2.173.9 2.173 2.3 0 .476-.05.926-.205 1.587H26.5c-.026.08-.026.133-.026.185 0 .74.486 1.11 1.406 1.11a3.42 3.42 0 0 0 1.662-.397l-.256 1.587zm-.895-3.782v-.317c0-.53-.28-.82-.767-.82-.51 0-.87.397-1.023 1.137h1.8zM12.116 28.44H10.53l.92-6.004-2.07 6.004h-1.1l-.128-5.95-.97 5.95H5.7l1.253-7.802h2.3l.077 4.84 1.534-4.84h2.506l-1.253 7.802zm3.963-2.83c-.153 0-.23-.026-.358-.026-.895 0-1.355.344-1.355.978 0 .397.205.635.562.635.665 0 1.125-.635 1.15-1.587zm1.176 2.83h-1.33l.025-.662c-.41.53-.946.767-1.687.767-.87 0-1.457-.688-1.457-1.72 0-1.56 1.022-2.46 2.812-2.46.18 0 .41.026.665.053.05-.21.05-.29.05-.397 0-.423-.28-.582-1.023-.582-.46 0-.972.053-1.33.16l-.23.08-.153.026.23-1.428c.793-.238 1.33-.317 1.918-.317 1.38 0 2.122.635 2.122 1.85 0 .317-.026.556-.128 1.27l-.358 2.248-.05.396-.026.317-.026.24-.025.158zM41.4 25.6c-.18 0-.256-.026-.358-.026-.92 0-1.38.344-1.38.978 0 .397.23.635.588.635.64 0 1.125-.635 1.15-1.587zm1.176 2.83h-1.33l.025-.662c-.41.53-.946.767-1.687.767-.87 0-1.458-.688-1.458-1.72 0-1.56 1.023-2.46 2.812-2.46.18 0 .4.026.64.053.05-.21.077-.29.077-.397 0-.423-.282-.582-1.023-.582-.46 0-.997.053-1.355.16l-.205.08-.154.026.23-1.428c.793-.238 1.33-.317 1.918-.317 1.38 0 2.096.635 2.096 1.85 0 .317 0 .556-.128 1.27l-.333 2.248-.05.396-.05.317-.025.24v.158h0zm4.295-6.4h-.153c-.537 0-.843.265-1.33 1.03l.154-.98h-1.458l-.972 6.348h1.585c.588-3.888.742-4.55 1.51-4.55h.102c.153-.767.358-1.323.614-1.825l-.05-.026z" fill="#fff"/></svg>
